X:1
T:Amor io non mi pento
T:Tiburtio Massaino
T:Amor io non mi pento
T:Seconda parte
C:Tiburtio Massaino
%%score [ 1 2 3 4 ]
L:1/8
Q:1/4=96
M:4/2
K:F
V:1 alto1 nm="Soprano" snm="S"
V:2 alto nm="Alto" snm="A"
V:3 tenor nm="Tenor" snm="T"
V:4 bass nm="Bass" snm="B"
V:1
 z16 |[K:G][K:treble] B8 A6 G2 | A2 B2 c4 B4 z2 G2 | F6 B2 AG G3 F F2 | G4 z2 A2 A6 F2 | %5
w: |A- mor io|non mi pen- to, A-|mor io non mi pen- * *|to, A- mor io|
 G2 A2 B2 E2 z2 A2 A3 B | c4 B4 d3 c B2 A2 | G3 F E2 D2 z4 d4 | B3 c d4 B4 z2 A2 | %9
w: non mi pen- to, D'es- ser fe-|ri- to de la tua sa-|et- * * ta, D'es-|ser fe- ri- to, D'es-|
 B3 c d4 G2 F2 E2 E2 | G4 F4 z2 B4 A2 | G2 F2 E4 D4 z2 G2 | F2 D2 E3 F G4 F4 | %13
w: ser fe- ri- to, D'es- ser fe-|ri- to de la|tua sa- et- ta, S'un|tuo si pic- ciol ben tan-|
 E2 D2 G4 F2 B2 A2 G2 | c2 c2 B4 A4 c2 d2 | e4 A4 z2 B2 A2 F2 | G2 A2 B4 A4 G2 F2 | %17
w: to di- let- ta, S'un tuo si|pic- ciol ben tan- to di-|let- ta, S'un tuo si|pic- ciol ben tan- to di-|
 B4 A4 z2 B2 A2 B2 | c2 A2 B4 d4 c4 | B4 A6 G2 G4- | G2 FE F4 G2 G3 G G2 | F4 G2 B3 B B2 A4 | %22
w: let- ta, S'un tuo si|pic- ciol ben tan- to|di- let- * *|* * * * ta, tan- to di-|let- ta, tan- to di- let-|
 B4 z2 G2 F2 D2 E3 F | G4 F4 E2 D2 G4 | F2 B2 A2 G2 c2 c2 B4 | A4 c2 d2 e4 A4 | %26
w: ta, S'un tuo si pic- ciol|ben tan- to di- let-|ta, S'un tuo si pic- ciol ben|tan- to di- let- ta,|
 z4 z2 G2 A2 B2 c2 A2 | B4 d4 c4 B4 | A8 D4 z2 D2 | EFGE F4 A4 G4 | F4 EFGE F2 G4 F2 | G16 |] %32
w: S'un tuo si pic- ciol|ben tan- to di-|let- ta, S'un|tuo si pic- ciol ben tan- to|di- let- * * * * * *|ta.|
V:2
 z16 |[K:G][K:treble] G8 F6 D2 | EE G3 F/E/ F2 G4 z2 D2 | D6 B,2 C2 D2 E2 A,2 | z4 F4 E6 D2 | %5
w: |A- mor io|non mi pen- * * * to, A-|mor io non mi pen- to,|A- mor io|
 E2 F2 G4 F4 z2 D2 | E3 F G4 F2 G4 F2 | B3 A G6 FE F4 | G8 z8 | z8 z4 G,4 | B,3 C D4 G,2 G4 F2 | %11
w: non mi pen- to, D'es-|ser fe- ri- to de la|tua sa- et- * * *|ta,|D'es-|ser fe- ri- to de la|
 E2 D2 C4 B,8 | z16 | z8 z2 G2 F2 D2 | E3 F G4 F4 E2 D2 | G4 F4 z8 | z4 z2 D2 D2 D2 E2 F2 | %17
w: tua sa- et- ta,||S'un tuo si|pic- ciol ben tan- to di-|let- ta,|S'un tuo si pic- ciol|
 G2 D3 D D2 EF G3 F/E/ F2 | E4 z2 G,2 A,2 B,2 C2 A,2 | B,4 D4 C4 B,4 | A,8 G,2 D3 D D2 | %21
w: ben tan- to di- let- * * * * *|ta, S'un tuo si pic- ciol|ben tan- to di-|let- ta, tan- to di-|
 D4 D4 z2 G3 G F2 | G3 A B4 A8 | z16 | z2 G2 F2 D2 E3 F G4 | F4 E2 D2 G4 F2 D2 | %26
w: let- ta, tan- to di-|let- * * ta,||S'un tuo si pic- ciol ben|tan- to di- let- ta, S'un|
 E2 F2 G2 E2 F4 A4 | G4 F4 E4 D2 G2 | F2 F2 E2 F2 G4 z4 | G,4 A,2 B,2 C2 A,2 B,4 | D4 B,3 ^C D8 | %31
w: tuo si pic- ciol ben tan-|to di- let- ta, S'un|tuo si pic- ciol ben|S'un tuo si pic- ciol ben|tan- to di- let-|
 D16 |] %32
w: ta.|
V:3
 z16 |[K:G][K:treble-8] G8 d6 G2 | c2 B2 A4 G4 B4 | A6 G2 A2 B2 c4 | B4 z2 d2 c6 A2 | %5
w: |A- mor io|non mi pen- to, A-|mor io non mi pen-|to, A- mor io|
 BB d3 ^c/B/ c2 d8 | z4 G4 B3 c d4 | B2 c4 B2 A4 A4 | G3 A B3 c d4 A4 | z4 d4 e2 f2 g4 | %10
w: non mi pen- * * * to,|D'es- ser fe- ri-|to de la tua sa-|et- * * * * ta,|D'es- ser fe- ri-|
 d4 z2 B4 d2 d3 c | B4 G4 z4 G4 | A2 B2 c2 A2 B4 d4 | c2 B2 e4 d2 d2 c2 B2 | G2 A2 D4 z2 D2 E2 F2 | %15
w: to de la tua sa-|et- ta, S'un|tuo si pic- ciol ben tan-|to di- let- ta, S'un tuo si|pic- ciol ben, S'un tuo si|
 G2 E2 F4 z2 B2 d2 d2 | c2 c2 B4 z8 | z2 G2 A2 B2 c2 B2 d4 | c4 B2 g2 f4 e4 | %19
w: pic- ciol ben, S'un tuo si|pic- ciol ben,|S'un tuo si pic- ciol ben|tan- to di- let- ta.|
 z2 e2 A2 A2 e2 e2 d2 d2- | dd d2 d4 d2 B3 B B2 | A4 B2 d3 d d2 d4 | d4 z2 G2 A2 B2 c2 A2 | %23
w: S'un tuo si pic- ciol ben, ben|_ tan- to di- ta, tan- to di-|let- ta, tan- to di- let-|ta, S'un tuo si pic- ciol|
 B4 d4 c2 B2 e4 | d2 d2 c2 B2 G2 A2 D4 | z2 D2 E2 F2 G2 E2 F2 A2 | G2 F2 E4 D4 z4 | %27
w: ben tan- to di- let-|ta, S'un tuo si pic- ciol ben,|S'un tuo si pic- ciol ben tan-|to di- let- ta,|
 z2 G2 A2 B2 c2 A2 B2 G2 | A2 B2 c2 A2 B4 d4 | B3 ^c d4 A2 e2 d2 G2 | A2 A2 G2 B3 B B2 A4 | G16 |] %32
w: S'un tuo si pic- ciol ben, S'un|tuo si pic- ciol ben tan-|to di- let- ta, S'un tuo si|pic- ciol ben tan- to di- let-|ta.|
V:4
 z16 |[K:G] z16 | z8 z4 G,,4 | D,6 G,,2 C,2 B,,2 A,,4 | G,,4 D,4 A,6 D,2 | G,2 F,2 E,4 D,8 | %6
w: ||A-|mor io non mi pen-|to, A- mor io|non mi pen- to,|
 z8 z4 D,4 | E,3 F, G,4 D,8 | z4 G,,4 B,,3 C, D,4 | G,,2 G,4 F,2 E,2 D,2 C,4 | B,,8 z2 G,4 D,2 | %11
w: D'es-|ser fe- ri- to,|D'es- ser fe- ri-|to de la tua sa- et-|ta, de la|
 E,2 B,,2 C,4 G,,8 | z16 | z8 z2 G,,2 A,,2 B,,2 | C,2 A,,2 B,,4 D,4 C,2 B,,2 | %15
w: tua sa- et- ta,||S'un tuo si|pic- ciol ben tan- to di-|
 E,4 D,4 G,4 F,2 D,2 | E,2 F,2 G,4 F,4 E,2 D,2 | G,4 F,4 z4 D,4 | E,2 F,2 G,2 E,2 F,4 A,4 | %19
w: let- ta, S'un tuo si|pic- ciol ben tan- to di-|let- ta, S'un|tuo si pic- ciol ben tan-|
 G,4 F,4 E,3 F, G,4 | D,8 z2 G,3 G, G,2 | D,4 G,,2 G,3 G, G,2 D,4 | G,,8 z8 | z16 | %24
w: to di- let- * *|ta, tan- to di-|let- ta, tan- to di- let-|ta,||
 z2 G,,2 A,,2 B,,2 C,2 A,,2 B,,4 | D,4 C,2 B,,2 E,4 D,4 | z16 | z4 D,4 E,2 F,2 G,2 E,2 | %28
w: S'un tuo si pic- ciol ben|tan- to di- let- ta,||S'un tuo si pic- ciol|
 F,4 A,4 G,4 F,4 | E,4 D,4 z4 G,4 | D,4 E,4 D,8 | G,,16 |] %32
w: ben tan- to di-|let- ta, tan-|to di- let-|ta.|

